packages/icons/src/custom-stage.svg

<svg fill="none" viewBox="0 0 103 84" xmlns="http://www.w3.org/2000/svg"><path d="m26.984 21.467-5.361 2.383v36.54l58.781 18.468 4.17-2.383v-40.511z" fill="#fff"/><path d="m21.619 20.56v41.518m58.384-26.214v42.896m2.383-40.512-62.753-15.888m67.519 13.902-62.752-15.887m57.192 58.384-61.165-19.065m63.548-25.418v42.497m-4.766 1.987c2.184-1.192 3.177-1.788 5.759-3.575m-6.355-36.739c2.581-1.589 4.73-2.842 6.95-4.369m-65.533-10.525c3.177-1.39 4.515-1.948 7.646-3.277m-2.479 3.189 4.369-1.95-4.37 1.95zm2.803.826 4.545-2.028m-2.2 2.756 4.782-2.134m-1.914 2.883 4.495-2.006m-1.368 2.669 4.365-1.949m-1.758 2.56 4.557-2.034m-1.95 2.898 4.693-2.094m-1.304 2.659 4.2-1.874m-1.855 2.602 4.319-1.927m-1.19 2.56 4.37-1.95zm2.66.989 4.887-2.181m-1.813 2.792 4.593-2.05m-1.672 2.775c1.403-.627 2.82-1.26 4.254-1.899m-1.7 2.673 4.679-2.088m-2.27 2.788 4.638-2.07m-1.834 2.847 4.828-2.155m-1.962 2.845 4.74-2.116m-1.627 2.734 4.415-1.97m-1.532 2.711 4.305-1.92m-.198 5.564 4.17-2.561m0 2.259-3.772 2.316m3.54 0-3.54 2.174m3.772-.101-3.774 2.316m3.653 0-3.653 2.243m3.54 0-3.54 2.173m3.576-.144-3.377 2.073m3.376-.172c-1.136.698-2.261 1.39-3.376 2.073m3.376.1-3.376 2.074m3.377-.023-3.773 2.318m3.773-.416-3.585 2.201m3.54 0-3.54 2.173m3.783-.096-3.773 2.317m3.546-.276-3.546 2.177m3.54 0-3.54 2.174m3.575.008-3.575 2.195m3.575 0-3.275 2.01m3.275.174-3.575 2.195m-34.012-29.013c3.133-1.709 5.654-3.016 9.521-4.9m2.007.544c2.61 1.85 4.786 3.59 8.022 6.073-3.236.344-5.63.78-8.783 1.214m-11.746-10.223c-2.175.544-6.96 1.631-9.897 2.284 2.175 1.305 5.22 3.154 8.7 4.785m-6.307 4.677 14.465 4.35m-14.9-.435 26.102 8.048m-26.19-4.074 17.272 5.27" stroke="#000" stroke-linecap="round" stroke-linejoin="round"/><path d="m5.993 81.757c-.641-1.924 3.74-16.832 6.012-24.046-5.772 1.282-6.413 9.35-6.012 13.225-2.405-2.004-6.653-6.973-4.41-10.82 2.245-3.848 8.951-6.68 12.024-7.615-2.538-4.142-12.023-12.023 3.607-10.42 10.602 1.087 7.748 8.149 5.21 10.42 1.47-.134 3.367-.882 7.214 3.607 3.847 4.488 3.83 10.722.894 12.788 0 0-.6-3.96-1.305-6.2-.934-2.962-4.242-5.98-4.242-5.98 4.242 9.57 7.613 19.576 7.613 19.576s1.632 9.462-8.918-2.937c-2.369-2.784-8.603.12-10.073 1.99-2.27 2.939-6.973 8.336-7.614 6.412z" fill="#fff"/><g stroke="#000" stroke-linecap="round" stroke-linejoin="round"><path d="m16.785 41.629c3.32.495 6.183 1.118 7.965 4.204.96 1.661.212 5.654-2.02 6.728-3.322 1.6-8.74.174-11.37-2.123-1.59-1.387-3.463-4.158-2.798-6.371.411-1.366 1.853-1.93 3.13-2.237 2.715-.652 5.585-.297 8.232.462 2.402.687 6.299 2.27 6.1 5.402-.186 2.905-3.004 5.25-5.683 5.735-4.046.731-12.526-3.437-11.913-8.217m16.327 11.106c2.778 6.072 3.474 8.475 6.088 14.618.567 1.332 2.89 7.452 1.202 8.817-2.494.67-6.227-5.317-9.217-6.813-4.008-2.004-7.79.122-11.223 4.81-1.603 2.188-3.607 4.809-7.214 4.007m7.214-23.645c-1.325 3.468-6.729 17.912-5.403 24.848"/><path d="m13.459 52.041c-3.19 1.96-6.37 3.743-9.143 6.28-4.379 4.009-4.699 9.642 2.483 13.009m16.028-19.23c7.614 1.603 13.196 11.65 7.614 17.233 0-3.206-.802-8.416-5.611-12.825m-.876-9.408c-1.203 3.607-8.016 3.206-10.821.801m-6.012 24.047c-4.81-8.416.802-13.226 6.412-14.829"/></g></svg>

<svg fill="none" xmlns="http://www.w3.org/2000/svg" viewBox="0 0 103 84"><path d="M26.984 21.467l-5.361 2.383v36.54l58.781 18.468 4.17-2.383V35.964l-57.59-14.497z" fill="#fff"/><path d="M21.619 20.56v41.518M80.003 35.864V78.76M82.386 38.248L19.633 22.36M87.152 36.262L24.4 20.375M81.592 78.759L20.427 59.694M83.975 34.276v42.497M79.209 78.76c2.184-1.192 3.177-1.788 5.759-3.575M78.613 38.446c2.581-1.589 4.73-2.842 6.95-4.369M20.03 23.552c3.177-1.39 4.515-1.948 7.646-3.277M25.197 23.464l4.369-1.95-4.37 1.95zM28 24.29l4.545-2.028m-2.2 2.756l4.782-2.134m-1.914 2.883l4.495-2.006M36.34 26.43l4.365-1.949m-1.758 2.56l4.557-2.034m-1.95 2.898l4.693-2.094M44.943 28.47l4.2-1.874m-1.855 2.602l4.319-1.927m-1.19 2.56l4.37-1.95-4.37 1.95zM53.077 30.82l4.887-2.181m-1.813 2.792l4.593-2.05m-1.672 2.775c1.403-.627 2.82-1.26 4.254-1.899M61.626 32.93l4.679-2.088m-2.27 2.788l4.638-2.07m-1.834 2.847l4.828-2.155M69.705 35.097l4.74-2.116m-1.627 2.734l4.415-1.97m-1.532 2.711l4.305-1.92M79.808 40.1l4.17-2.561m0 2.259l-3.772 2.316m3.54 0l-3.54 2.174M83.978 44.187l-3.774 2.316m3.653 0l-3.653 2.243m3.54 0l-3.54 2.173M83.78 50.775l-3.377 2.073m3.376-.172c-1.136.698-2.261 1.39-3.376 2.073m3.376.1l-3.376 2.074M83.78 56.9l-3.773 2.318m3.773-.416l-3.585 2.201m3.54 0l-3.54 2.173M83.978 63.08l-3.773 2.317m3.546-.276l-3.546 2.177m3.54 0l-3.54 2.174M83.78 69.48l-3.575 2.195m3.575 0l-3.275 2.01m3.275.174l-3.575 2.195M46.193 47.041c3.133-1.709 5.654-3.016 9.521-4.9M57.721 42.685c2.61 1.85 4.786 3.59 8.022 6.073-3.236.344-5.63.78-8.783 1.214M45.214 39.749c-2.175.544-6.96 1.631-9.897 2.284 2.175 1.305 5.22 3.154 8.7 4.785M37.71 51.495l14.465 4.35M37.275 55.41l26.102 8.048M37.187 59.384l17.272 5.27" stroke="#000" stroke-linecap="round" stroke-linejoin="round"/><path d="M5.993 81.757c-.641-1.924 3.74-16.832 6.012-24.046-5.772 1.282-6.413 9.35-6.012 13.225-2.405-2.004-6.653-6.973-4.41-10.82 2.245-3.848 8.951-6.68 12.024-7.615-2.538-4.142-12.023-12.023 3.607-10.42 10.602 1.087 7.748 8.149 5.21 10.42 1.47-.134 3.367-.882 7.214 3.607 3.847 4.488 3.83 10.722.894 12.788 0 0-.6-3.96-1.305-6.2-.934-2.962-4.242-5.98-4.242-5.98 4.242 9.57 7.613 19.576 7.613 19.576s1.632 9.462-8.918-2.937c-2.369-2.784-8.603.12-10.073 1.99-2.27 2.939-6.973 8.336-7.614 6.412z" fill="#fff"/><path d="M16.785 41.629c3.32.495 6.183 1.118 7.965 4.204.96 1.661.212 5.654-2.02 6.728-3.322 1.6-8.74.174-11.37-2.123-1.59-1.387-3.463-4.158-2.798-6.371.411-1.366 1.853-1.93 3.13-2.237 2.715-.652 5.585-.297 8.232.462 2.402.687 6.299 2.27 6.1 5.402-.186 2.905-3.004 5.25-5.683 5.735-4.046.731-12.526-3.437-11.913-8.217M24.755 56.318c2.778 6.072 3.474 8.475 6.088 14.618.567 1.332 2.89 7.452 1.202 8.817-2.494.67-6.227-5.317-9.217-6.813-4.008-2.004-7.79.122-11.223 4.81-1.603 2.188-3.607 4.809-7.214 4.007M11.605 58.112C10.28 61.58 4.876 76.024 6.202 82.96" stroke="#000" stroke-linecap="round" stroke-linejoin="round"/><path d="M13.459 52.041c-3.19 1.96-6.37 3.743-9.143 6.28C-.063 62.33-.383 67.963 6.799 71.33M22.827 52.1c7.614 1.603 13.196 11.65 7.614 17.233 0-3.206-.802-8.416-5.611-12.825M23.954 47.1c-1.203 3.607-8.016 3.206-10.821.801M7.121 71.948c-4.81-8.416.802-13.226 6.412-14.829" stroke="#000" stroke-linecap="round" stroke-linejoin="round"/></svg>
